public/assets/images/arrow.svg

<svg width="60" height="60" viewBox="0 0 60 60" fill="none" xmlns="http://www.w3.org/2000/svg">
<path opacity="0.5" d="M0 30C0 15.8579 0 8.7868 4.3934 4.3934C8.7868 0 15.8579 0 30 0C44.1421 0 51.2132 0 55.6066 4.3934C60 8.7868 60 15.8579 60 30C60 44.1421 60 51.2132 55.6066 55.6066C51.2132 60 44.1421 60 30 60C15.8579 60 8.7868 60 4.3934 55.6066C0 51.2132 0 44.1421 0 30Z" fill="url(#paint0_radial_169_2059)"/>
<path d="M60 9C60 13.9706 55.9706 18 51 18C46.0294 18 42 13.9706 42 9C42 4.02944 46.0294 0 51 0C55.9706 0 60 4.02944 60 9Z" fill="url(#paint1_radial_169_2059)"/>
<path d="M37.5 26.25C36.2574 26.25 35.25 25.2426 35.25 24C35.25 22.7574 36.2574 21.75 37.5 21.75H45C46.2426 21.75 47.25 22.7574 47.25 24V31.5C47.25 32.7426 46.2426 33.75 45 33.75C43.7574 33.75 42.75 32.7426 42.75 31.5V29.432L36.7123 35.4697C34.6621 37.5199 31.3379 37.5199 29.2877 35.4697L24.5303 30.7123C24.2374 30.4194 23.7626 30.4194 23.4697 30.7123L16.591 37.591C15.7123 38.4697 14.2877 38.4697 13.409 37.591C12.5303 36.7123 12.5303 35.2877 13.409 34.409L20.2877 27.5303C22.3379 25.4801 25.6621 25.4801 27.7123 27.5303L32.4697 32.2877C32.7626 32.5806 33.2374 32.5806 33.5303 32.2877L39.568 26.25H37.5Z" fill="url(#paint2_radial_169_2059)"/>
<defs>
<radialGradient id="paint0_radial_169_2059" cx="0" cy="0" r="1" gradientUnits="userSpaceOnUse" gradientTransform="translate(77.6864 49.5331) rotate(-155.477) scale(65.3389 46.7521)">
<stop stop-color="#C6B38A"/>
<stop offset="0.463601" stop-color="#F3C691"/>
<stop offset="1" stop-color="#B4703E"/>
</radialGradient>
<radialGradient id="paint1_radial_169_2059" cx="0" cy="0" r="1" gradientUnits="userSpaceOnUse" gradientTransform="translate(65.3059 14.8599) rotate(-155.477) scale(19.6017 14.0256)">
<stop stop-color="#C6B38A"/>
<stop offset="0.463601" stop-color="#F3C691"/>
<stop offset="1" stop-color="#B4703E"/>
</radialGradient>
<radialGradient id="paint2_radial_169_2059" cx="0" cy="0" r="1" gradientUnits="userSpaceOnUse" gradientTransform="translate(57.4197 35.3716) rotate(-167.692) scale(34.985 13.8068)">
<stop stop-color="#C6B38A"/>
<stop offset="0.463601" stop-color="#F3C691"/>
<stop offset="1" stop-color="#B4703E"/>
</radialGradient>
</defs>
</svg>

<svg xmlns="http://www.w3.org/2000/svg" width="60" height="60" fill="none" xmlns:v="https://vecta.io/nano"><path opacity=".5" d="M0 30C0 15.858 0 8.787 4.393 4.393S15.858 0 30 0s21.213 0 25.607 4.393S60 15.858 60 30s0 21.213-4.393 25.607S44.142 60 30 60 8.787 60 4.393 55.607 0 44.142 0 30z" fill="url(#A)"/><path d="M60 9a9 9 0 1 1-18 0 9 9 0 1 1 18 0z" fill="url(#B)"/><path d="M37.5 26.25a2.25 2.25 0 1 1 0-4.5H45A2.25 2.25 0 0 1 47.25 24v7.5a2.25 2.25 0 1 1-4.5 0v-2.068l-6.038 6.038a5.25 5.25 0 0 1-7.425 0l-4.757-4.757a.75.75 0 0 0-1.061 0l-6.879 6.879a2.25 2.25 0 1 1-3.182-3.182l6.879-6.879a5.25 5.25 0 0 1 7.425 0l4.757 4.757a.75.75 0 0 0 1.061 0l6.038-6.038H37.5z" fill="url(#C)"/><defs><radialGradient id="A" cx="0" cy="0" r="1" gradientUnits="userSpaceOnUse" gradientTransform="translate(77.6864 49.5331) rotate(-155.477) scale(65.3389 46.7521)"><stop stop-color="#c6b38a"/><stop offset=".464" stop-color="#f3c691"/><stop offset="1" stop-color="#b4703e"/></radialGradient><radialGradient id="B" cx="0" cy="0" r="1" gradientUnits="userSpaceOnUse" gradientTransform="translate(65.3059 14.8599) rotate(-155.477) scale(19.6017 14.0256)"><stop stop-color="#c6b38a"/><stop offset=".464" stop-color="#f3c691"/><stop offset="1" stop-color="#b4703e"/></radialGradient><radialGradient id="C" cx="0" cy="0" r="1" gradientUnits="userSpaceOnUse" gradientTransform="translate(57.4197 35.3716) rotate(-167.692) scale(34.985 13.8068)"><stop stop-color="#c6b38a"/><stop offset=".464" stop-color="#f3c691"/><stop offset="1" stop-color="#b4703e"/></radialGradient></defs></svg>
